!!!COM: Bach, Johann Sebastian
!!!OPR: Joh. Seb. Bachs vierstimmige Choralges‰nge
!!!XEN: Four-part Chorales
!!!OTL: 123. Lobt Gott, ihr Christen allzugleich
!!!SCT: BWV 376
!!!SCA: Thematisch-systematisches Verzeichnis der musikalischen Werke Johann Sebastian Bach: Bach-Werke-Verzeichnis (Schmieder)
!!!YOR: Bach Gesellschaft Edition xxxix
!!!ENC: Steven Rasmussen
!!!CDT: 1685/3//-1750/7/28/
!!!OCY: Deutschland
!!!YEC: Copyright (c) 1994, 2000 Center for Computer Assisted Research in the Humanities
!!!YEM: Rights to all derivative editions reserved
!!!YEN: United States of America
**kern	**silbe	**kern	**kern	**kern	**silbe
*I:[BASSO]	*I:[BASSO]	*I:[TENORE]	*I:[ALTO]	*I:[SOPRANO]	*I:[SOPRANO]
*clefF4	*	*clefGv2	*clefG2	*clefG2	*
*k[f#c#g#]	*	*k[f#c#g#]	*k[f#c#g#]	*k[f#c#g#]	*
*A:	*	*A:	*A:	*A:	*
*M4/4	*	*M4/4	*M4/4	*M4/4	*
4A	.	4c#	4e	4a	Lobt
=1	=1	=1	=1	=1	=1
4G#	.	4B	8eL	4ee	Gott,
.	.	.	8f#J	.	.
4E	.	8eL	4g#	4ee	ihr
.	.	8dJ	.	.	.
8AL	.	8c#L	4a	4ee	Chri-
8BJ	.	8dJ	.	.	.
8c#L	.	4e	4a	4ee	-sten
8AJ	.	.	.	.	.
=2	=2	=2	=2	=2	=2
4D	.	8dL	4a	4ff#	all-
.	.	8c#J	.	.	.
4E	.	4B	4g#	8eeL	-zu-
.	.	.	.	8ddJ	.
4AA;	.	4A;	4e;	4cc#;	-gleich,
4E	.	4G#	4e	4b	in
=3	=3	=3	=3	=3	=3
4A	.	4A	8eL	8cc#L	sei-
.	.	.	8f#J	8dd#J	.
8G#L	.	4B	4g#	4ee	-nem
8AJ	.	.	.	.	.
4B	.	4B	4f#	8eeL	h√∂ch-
.	.	.	.	8ff#J	.
4BB	.	4B	8g#L	4dd#	-sten
.	.	.	8aJ	.	.
=4	=4	=4	=4	=4	=4
2.E;	.	2.B;	2.g#;	2.ee;	Thron,
8EL	.	4B	4g#	4ee	der
8DJ	.	.	.	.	.
=5	=5	=5	=5	=5	=5
8C#L	.	4c#	4a	4ee	heut'
8DJ	.	.	.	.	.
8EL	.	8BL	8g#L	4ee	auf-
8F#J	.	8AJ	8f#J	.	.
8G#L	.	4B	4e	8eeL	-schleusst
8EJ	.	.	.	8ddJ	.
4A	.	4A	8eL	8cc#L	sein
.	.	.	8dJ	8ddJ	.
=6	=6	=6	=6	=6	=6
4C#	.	4A	8c#L	4ee	Him-
.	.	.	8AJ	.	.
4D	.	4A	4f#	8ddL	-mel-
.	.	.	.	8cc#J	.
4E;	.	4e;	4g#;	4b;	-reich
4C#	und	4G#	8cc#L	4ee	und
.	.	.	8bJ	.	.
=7	=7	=7	=7	=7	=7
8F#	schenkt	8AL	4.a	4dd	schenkt
8G#	uns	8BJ	.	.	.
[4A	sei-	8c#L	.	4cc#	uns
.	.	8AJ	8g#	.	.
8AL]	.	4.d	4f#	4.b	sei-
8G#J	.	.	.	.	.
8F#L	-nen	.	4g#	.	.
8E#J	.	8c#	.	8cc#	-nen
=8	=8	=8	=8	=8	=8
4F#	.	4c#	8f#L	8aL	Sohn,
.	.	.	8g#	8b	.
8EL	.	4F#	8a	8cc#	.
8DJ	.	.	8bJ	8ddJ	.
4C#;	.	4G#;	4cc#;	4ee;	.
4A#	.	4c#	4f#	4ee	und
=9	=9	=9	=9	=9	=9
4B	.	8dL	8f#L	4dd	schenkt
.	.	8eJ	8g#J	.	.
8F#L	.	4f#	4a	4cc#	uns
8EJ	.	.	.	.	.
8DL	.	4f#	4a	4b	sei-
8BBJ	.	.	.	.	.
4E	.	8eL	4g#	4b	-nen
.	.	8dJ	.	.	.
=10	=10	=10	=10	=10	=10
2.AA;	.	2.c#;	2.e;	2.a;	Sohn.
==|!	==|!	==|!	==|!	==|!	==|!
*-	*-	*-	*-	*-	*-
!!!RWG: Key is interpreted using the Humdrum key tool.
!!!URL-pdf: https://s9.imslp.org/files/imglnks/usimg/6/6b/IMSLP24489-PMLP09471-CCARH_Bach_Chorales.pdf#page=87 Musedata edition
!!!URL-pdf: https://s9.imslp.org/files/imglnks/usimg/7/7a/IMSLP04155-Bach_-_BGA_253-438.pdf#page=68 	Bach-Gesellschaft Ausgabe, Band 39 (pp.175-276) Leipzig: Breitkopf und H‰rtel, 1892. Plate B.W. XXXIX.
!!!END: 1994/07/18
!!!EMD: Converted from MuseData to Humdrum Dec 19, 2000, by Andreas Kornstaedt using muse2kern.
!!!EED: Craig Stuart Sapp
!!!EEV: 2024/03/31
!!!ONB: Some non-unicode characters
!!!filter-keyboard: satb2gs
